Newaita/actions/32/gnumeric-font.svg

<svg height="32" viewBox="0 0 32 32" width="32" xmlns="http://www.w3.org/2000/svg"><path d="m15.875 4.21875c-5.128906 0-9.261719 4.132812-9.261719 9.261719v14.554687h2.648438v-7.941406h13.230469v7.941406h2.644531v-14.554687c0-5.128907-4.128907-9.261719-9.261719-9.261719zm0 2.644531c3.667969 0 6.617188 2.953125 6.617188 6.617188v3.96875h-13.230469v-3.96875c0-3.664063 2.949219-6.617188 6.613281-6.617188zm0 0" fill="#424242"/></svg>

<svg xmlns="http://www.w3.org/2000/svg" xmlns:xlink="http://www.w3.org/1999/xlink" width="32px" height="32px" viewBox="0 0 32 32" version="1.1">
<g id="surface1">
     <defs>
  <style id="current-color-scheme" type="text/css">
   .ColorScheme-Text { color:#424242; } .ColorScheme-Highlight { color:#eeeeee; }
  </style>
 </defs>
<path style="fill:currentColor" class="ColorScheme-Text" d="M 15.875 4.21875 C 10.746094 4.21875 6.613281 8.351562 6.613281 13.480469 L 6.613281 28.035156 L 9.261719 28.035156 L 9.261719 20.09375 L 22.492188 20.09375 L 22.492188 28.035156 L 25.136719 28.035156 L 25.136719 13.480469 C 25.136719 8.351562 21.007812 4.21875 15.875 4.21875 Z M 15.875 6.863281 C 19.542969 6.863281 22.492188 9.816406 22.492188 13.480469 L 22.492188 17.449219 L 9.261719 17.449219 L 9.261719 13.480469 C 9.261719 9.816406 12.210938 6.863281 15.875 6.863281 Z M 15.875 6.863281 "/>
</g>
</svg>
